client/public/img/loot/loot-scope-00.svg

<svg height="128" width="128" xmlns="http://www.w3.org/2000/svg">
  <g fill="#fff">
    <path d="m61.455.662v6.562c-29.335 1.298-52.933 24.896-54.23 54.231h-6.564v5.09h6.562c1.298 29.336 24.895 52.933 54.231 54.23v6.563h5.09v-6.562c29.336-1.298 52.933-24.895 54.23-54.231h6.563v-5.09h-6.562c-1.297-29.335-24.895-52.933-54.23-54.23v-6.564zm0 11.656v4.113h5.09v-4.113c26.58 1.283 47.854 22.558 49.137 49.137h-5.61v5.09h5.61c-1.283 26.58-22.558 47.854-49.137 49.137v-4.413h-5.09v4.413c-26.58-1.283-47.854-22.558-49.137-49.137h5.111v-5.09h-5.111c1.283-26.58 22.558-47.854 49.137-49.137z"/>
    <path d="m67.822362 90.774002h-6.548027v-41.725485q-2.364566 2.255432-6.220626 4.510864-3.819683 2.255431-6.875429 3.383147v-6.32976q5.493067-2.582833 9.603773-6.257004 4.110706-3.67417 5.820469-7.130074h4.21984z" stroke-width=".998"/>
  </g>
</svg>

<svg height="128" width="128" xmlns="http://www.w3.org/2000/svg">
  <g fill="#fff">
    <path d="m 127.33881,61.46108 h -6.54492 A 56.849998,56.849998 0 0 0 66.54584,7.21303 V 0.66811 H 61.456 V 7.21303 A 56.849998,56.849998 0 0 0 7.20795,61.46108 H 0.66303 v 5.08984 H 7.20795 A 56.849998,56.849998 0 0 0 61.456,120.79897 v 6.54492 h 5.08984 v -6.54492 a 56.849998,56.849998 0 0 0 54.24805,-54.24805 h 6.54492 z m -11.65039,0 h -5.61523 v 5.08984 h 5.61523 A 51.75,51.75 0 0 1 66.54584,115.6935 v -5.61523 H 61.456 v 5.61523 A 51.75,51.75 0 0 1 12.31342,66.55092 h 5.61523 V 61.46108 H 12.31342 A 51.75,51.75 0 0 1 61.456,12.3185 v 5.61523 h 5.08984 V 12.3185 a 51.75,51.75 0 0 1 49.14258,49.14258 z" />
    <path
       d="M 69.053131,90.714577 H 62.538062 V 45.58491 l -11.200063,5.014408 v -6.149054 l 16.69029,-7.283702 h 1.024842 z"/>
  </g>
</svg>
